svg/incognito_circle.svg

<svg xmlns="http://www.w3.org/2000/svg" viewBox="0 0 24 24"><path d="M12 2c5.5 0 10 4.5 10 10s-4.5 10-10 10S2 17.5 2 12 6.5 2 12 2m2.92 10.81c-1.08 0-1.97.75-2.21 1.75-.54-.23-1.05-.17-1.42-.01-.24-1-1.14-1.74-2.21-1.74-1.25 0-2.26 1.01-2.26 2.26s1.01 2.26 2.26 2.26c1.2 0 2.16-.91 2.25-2.08.2-.13.71-.39 1.34.01a2.258 2.258 0 0 0 4.51-.19c0-1.25-1.01-2.26-2.26-2.26m-5.84.64c.92 0 1.62.73 1.62 1.62s-.7 1.62-1.62 1.62c-.89 0-1.62-.73-1.62-1.62s.73-1.62 1.62-1.62m5.84 0c.89 0 1.62.73 1.62 1.62s-.73 1.62-1.62 1.62c-.92 0-1.62-.73-1.62-1.62s.7-1.62 1.62-1.62m2.91-1.95H6.17v.67h11.66zm-3.68-4.61a.67.67 0 0 0-.8-.36L12 7l-1.35-.47-.04-.03a.67.67 0 0 0-.77.42l-1.48 3.91h7.28l-1.48-3.91z"/></svg>

<?xml version="1.0" encoding="UTF-8"?><!DOCTYPE svg PUBLIC "-//W3C//DTD SVG 1.1//EN" "http://www.w3.org/Graphics/SVG/1.1/DTD/svg11.dtd"><svg xmlns="http://www.w3.org/2000/svg" xmlns:xlink="http://www.w3.org/1999/xlink" version="1.1" id="mdi-incognito-circle" width="24" height="24" viewBox="0 0 24 24"><path d="M12 2C17.5 2 22 6.5 22 12S17.5 22 12 22 2 17.5 2 12 6.5 2 12 2M14.92 12.81C13.84 12.81 12.95 13.56 12.71 14.56C12.17 14.33 11.66 14.39 11.29 14.55C11.05 13.55 10.15 12.81 9.08 12.81C7.83 12.81 6.82 13.82 6.82 15.07C6.82 16.32 7.83 17.33 9.08 17.33C10.28 17.33 11.24 16.42 11.33 15.25C11.53 15.12 12.04 14.86 12.67 15.26C12.77 16.42 13.73 17.33 14.92 17.33C16.17 17.33 17.18 16.32 17.18 15.07C17.18 13.82 16.17 12.81 14.92 12.81M9.08 13.45C10 13.45 10.7 14.18 10.7 15.07C10.7 15.96 10 16.69 9.08 16.69C8.19 16.69 7.46 15.96 7.46 15.07C7.46 14.18 8.19 13.45 9.08 13.45M14.92 13.45C15.81 13.45 16.54 14.18 16.54 15.07C16.54 15.96 15.81 16.69 14.92 16.69C14 16.69 13.3 15.96 13.3 15.07C13.3 14.18 14 13.45 14.92 13.45M17.83 11.5H6.17V12.17H17.83V11.5M14.15 6.89C14 6.59 13.67 6.43 13.35 6.53L12 7L10.65 6.53L10.61 6.5C10.29 6.43 9.95 6.61 9.84 6.92L8.36 10.83H15.64L14.16 6.92L14.15 6.89Z" /></svg>
